usr/share/themes/Mint-X/metacity-1/close-focus.svg

<?xml version="1.0" encoding="UTF-8" standalone="no"?>
<!-- Created with Inkscape (http://www.inkscape.org/) -->
<svg
   xmlns:dc="http://purl.org/dc/elements/1.1/"
   xmlns:cc="http://creativecommons.org/ns#"
   xmlns:rdf="http://www.w3.org/1999/02/22-rdf-syntax-ns#"
   xmlns:svg="http://www.w3.org/2000/svg"
   xmlns="http://www.w3.org/2000/svg"
   xmlns:xlink="http://www.w3.org/1999/xlink"
   xmlns:sodipodi="http://sodipodi.sourceforge.net/DTD/sodipodi-0.dtd"
   xmlns:inkscape="http://www.inkscape.org/namespaces/inkscape"
   version="1.0"
   width="16"
   height="21"
   id="svg2"
   sodipodi:version="0.32"
   inkscape:version="0.46"
   sodipodi:docname="close-focus.svg"
   inkscape:output_extension="org.inkscape.output.svg.inkscape">
  <metadata
     id="metadata11">
    <rdf:RDF>
      <cc:Work
         rdf:about="">
        <dc:format>image/svg+xml</dc:format>
        <dc:type
           rdf:resource="http://purl.org/dc/dcmitype/StillImage" />
      </cc:Work>
    </rdf:RDF>
  </metadata>
  <sodipodi:namedview
     inkscape:window-height="706"
     inkscape:window-width="640"
     inkscape:pageshadow="2"
     inkscape:pageopacity="0.0"
     guidetolerance="10.0"
     gridtolerance="10.0"
     objecttolerance="10.0"
     borderopacity="1.0"
     bordercolor="#666666"
     pagecolor="#ffffff"
     id="base"
     showgrid="false"
     showguides="true"
     inkscape:guide-bbox="true"
     inkscape:zoom="23.714286"
     inkscape:cx="8.0000001"
     inkscape:cy="10.623976"
     inkscape:window-x="399"
     inkscape:window-y="49"
     inkscape:current-layer="svg2">
    <sodipodi:guide
       orientation="0,1"
       position="12.650602,12.987952"
       id="guide2386" />
    <sodipodi:guide
       orientation="0,1"
       position="14.253012,7"
       id="guide2388" />
    <inkscape:grid
       type="xygrid"
       id="grid2387" />
  </sodipodi:namedview>
  <defs
     id="defs4">
    <linearGradient
       id="linearGradient3587-6-5">
      <stop
         id="stop3589-9-2"
         style="stop-color:#000000;stop-opacity:1"
         offset="0" />
      <stop
         id="stop3591-7-4"
         style="stop-color:#646464;stop-opacity:1"
         offset="1" />
    </linearGradient>
    <linearGradient
       x1="7.0799088"
       y1="7.6944885"
       x2="11.317808"
       y2="11.932388"
       id="linearGradient2388"
       xlink:href="#linearGradient3587-6-5"
       gradientUnits="userSpaceOnUse"
       gradientTransform="matrix(0.7071068,0.7071068,-0.7071068,0.7071068,10.12132,-2.4350288)" />
  </defs>
  <path
     d="M 7.9701822,10.555969 L 10.5,8 L 12,9.5 L 9.4014345,11.987221 L 12,14.5 L 10.5,16 L 7.987221,13.401435 L 5.5,16 L 4,14.5 L 6.5857864,12 L 4,9.5 L 5.5,8 L 7.9701822,10.555969 z"
     id="path2398"
     style="opacity:0.8;fill:#ffffff;fill-opacity:1;fill-rule:evenodd;stroke:none;stroke-width:1px;stroke-linecap:butt;stroke-linejoin:miter;marker:none;marker-start:none;marker-mid:none;marker-end:none;stroke-miterlimit:4;stroke-dasharray:none;stroke-dashoffset:0;stroke-opacity:1;visibility:visible;display:inline;overflow:visible;enable-background:accumulate" />
  <path
     d="M 7.9701822,9.5559687 L 10.5,7 L 12,8.5 L 9.4014345,10.987221 L 12,13.5 L 10.5,15 L 7.987221,12.401435 L 5.5,15 L 4,13.5 L 6.5857864,11 L 4,8.5 L 5.5,7 L 7.9701822,9.5559687 z"
     id="path2386"
     style="opacity:0.59999999999999998;fill:url(#linearGradient2388);fill-opacity:1;fill-rule:evenodd;stroke:none;stroke-width:1px;stroke-linecap:butt;stroke-linejoin:miter;stroke-opacity:1" />
</svg>

<?xml version="1.0" encoding="UTF-8" standalone="no"?>
<svg xmlns="http://www.w3.org/2000/svg" height="21" width="16" version="1.0">
 <defs>
  <linearGradient id="a" y2="11.932" gradientUnits="userSpaceOnUse" x2="11.318" gradientTransform="matrix(.70711 .70711 -.70711 .70711 10.121 -2.435)" y1="7.6945" x1="7.0799">
   <stop offset="0"/>
   <stop stop-color="#646464" offset="1"/>
  </linearGradient>
 </defs>
 <path opacity=".8" d="m7.9702 10.556 2.5298-2.556 1.5 1.5-2.5986 2.487 2.5986 2.513-1.5 1.5-2.5128-2.599-2.4872 2.599-1.5-1.5 2.5858-2.5-2.5858-2.5 1.5-1.5 2.4702 2.556z" fill-rule="evenodd" fill="#fff"/>
 <path opacity=".6" d="m7.9702 9.556 2.5298-2.556 1.5 1.5-2.5986 2.487 2.5986 2.513-1.5 1.5-2.5128-2.599-2.4872 2.599-1.5-1.5 2.5858-2.5-2.5858-2.5 1.5-1.5 2.4702 2.556z" fill-rule="evenodd" fill="url(#a)"/>
</svg>
